X: 29683
T: Not Safe With A Razor
R: reel
M: 4/4
K: Adorian
|:A3d eAAF|GBeB dBAG|eBgb afge|d~B3 GedB|
A3d eAAF|GBeB dBAG|e~g3 afge|dBGA BAGB:|
|:A~a3 bgag|e~g3 agbg|(3efg fa gfge|dBGA BA A2|
a2fa gedB|GABd e2dB|AGgb afge|dBGA BAGB:|

